X: 1
T: The Little Diamond
R: polka
M: 2/4
L: 1/8
K: Dmaj
B2 | A>B AF | DE FD | A>B AF | GF EF | DE FG | AB cd | ed ce | d2 :||!
e2 | f2 ge | fd cB | Ad cd | fe e2 | f2 ge | fd cB | Ag ec | d2 :||!


Tune 604	Setting 13619

